X:1
T:Title
%%score { ( 1 3 ) | 2 }
L:1/8
Q:1/4=174
M:6/4
K:Ab
V:1 treble nm="Grand Piano"
V:3 treble 
V:2 bass 
V:1
 [ce]3 [Bd] [Ac]2 [Ec]4 [Bc]2 | [Ad]2 [Gd]4- [Gd]4 z2 | [Bd]3 [ce] [df]2 [ce]4 [Bd]2 | [Ac]12 | %4
w: Charles~H.~Gabriel * * * *||||
 [ce]3 [Bd] [Ac]2 [Ec]4 [ce]2 | [Be]6 .[eg]6 | [=df]3 [df] [df]2 [df]4 [Bd]2 | e6- [de]6 | %8
w: ||||
 [ce]3 [_c=d] [=ce]2 [_df]4 [ce]2 | [ce]2 [Bd]4- [Bd]4 z2 | [Bd]3 [=Ac] [Bd]2 [eg]4 [df]2 | %11
w: |||
 [ce]12 | [ce]3 [Bd] [Ac]2 [Ac]2 [Bd]2 [ce]2 | [df]6 .[df]6 | [ce]2 .[ce]4 [ce]4 [Bd]2 | [Ac]12 |] %16
w: |||||
V:2
 [A,,A,]3 [A,,E,] [A,,E,]2 [A,,A,]4 [A,,A,]2 | [B,,E,]2 [B,,E,]4- [B,,E,]4 z2 | %2
 [E,G,]3 [E,G,] [E,G,]2 [E,A,]4 E,2 | [A,,E,]12 | [A,,A,]3 [A,,E,] [A,,E,]2 [A,,A,]4 [A,,A,]2 | %5
 [B,,G,]6 .[B,,B,]6 | [B,,A,]3 [B,,A,] [B,,A,]2 [B,,A,]4 [F,A,]2 | [E,G,]12 | %8
 [A,,A,]3 [A,,A,] [A,,A,]2 [A,,A,]4 [A,,A,]2 | [E,A,]2 [E,G,]4- [E,G,]4 z2 | %10
 [E,G,]3 [E,_G,] [E,=G,]2 [E,B,]4 [E,G,]2 | A,12 | [A,,A,]3 [A,,E,] [A,,E,]2 [A,,E,]4 [A,,A,]2 | %13
 [D,A,]6 .[D,A,]6 | [E,A,]2 .[E,A,]4 [E,A,]4 E,2 | [A,,E,]12 |] %16
V:3
 x12 | x12 | x12 | x12 | x12 | x12 | x12 | B6 z6 | x12 | x12 | x12 | x12 | x12 | x12 | x12 | x12 |] %16

